public/images/avalanche.svg

<svg width="32" height="32" viewBox="0 0 32 32" fill="none" xmlns="http://www.w3.org/2000/svg">
<g id="Group 19">
<path id="Vector" fill-rule="evenodd" clip-rule="evenodd" d="M30 16C30 23.7321 23.7321 30 16 30C8.26801 30 2 23.7321 2 16C2 8.26801 8.26801 2 16 2C23.7321 2 30 8.26801 30 16ZM12.0328 21.5713H9.31579C8.74487 21.5713 8.46285 21.5713 8.2909 21.4613C8.10517 21.3409 7.99168 21.1414 7.97793 20.9213C7.9676 20.7184 8.10862 20.4707 8.39064 19.9755L15.0993 8.15059C15.3847 7.64845 15.5292 7.39738 15.7114 7.30453C15.9075 7.20479 16.1414 7.20479 16.3374 7.30453C16.5197 7.39738 16.6641 7.64845 16.9496 8.15059L18.3287 10.5581L18.3358 10.5703C18.6441 11.109 18.8004 11.3822 18.8687 11.6689C18.9443 11.9819 18.9443 12.3121 18.8687 12.625C18.7999 12.9139 18.6451 13.1891 18.3322 13.7359L14.8083 19.9652L14.7992 19.9811C14.4888 20.5242 14.3315 20.7995 14.1136 21.0072C13.8763 21.2342 13.5908 21.3992 13.2778 21.4923C12.9923 21.5713 12.6725 21.5713 12.0328 21.5713ZM18.8941 21.5713H22.7873C23.3617 21.5713 23.6506 21.5713 23.8227 21.4579C24.0083 21.3375 24.1252 21.1345 24.1357 20.9145C24.1455 20.7182 24.0076 20.4802 23.7373 20.0137C23.728 19.9978 23.7186 19.9817 23.7091 19.9652L21.759 16.6292L21.7368 16.5916C21.4628 16.1282 21.3245 15.8942 21.1468 15.8037C20.9509 15.704 20.7203 15.704 20.5243 15.8037C20.3455 15.8966 20.2011 16.1408 19.9156 16.6326L17.9724 19.9687L17.9658 19.9802C17.6813 20.4712 17.5391 20.7166 17.5494 20.9179C17.5632 21.1381 17.6766 21.3409 17.8624 21.4613C18.0309 21.5713 18.3198 21.5713 18.8941 21.5713Z" fill="white" fill-opacity="0.44"/>
</g>
</svg>

<svg xmlns="http://www.w3.org/2000/svg" width="32" height="32" fill="none"><path fill="#fff" fill-opacity=".44" fill-rule="evenodd" d="M30 16c0 7.732-6.268 14-14 14S2 23.732 2 16 8.268 2 16 2s14 6.268 14 14Zm-17.967 5.571H9.316c-.571 0-.853 0-1.025-.11a.69.69 0 0 1-.313-.54c-.01-.203.13-.45.413-.945L15.099 8.15c.286-.503.43-.754.612-.846.197-.1.43-.1.626 0 .183.092.327.343.613.846l1.379 2.407.007.012c.308.539.464.812.533 1.099a2.06 2.06 0 0 1 0 .956c-.07.289-.224.564-.537 1.11l-3.524 6.23-.009.016c-.31.543-.467.818-.685 1.026a2.053 2.053 0 0 1-.836.485c-.286.08-.606.08-1.245.08Zm6.861 0h3.893c.575 0 .864 0 1.036-.113a.688.688 0 0 0 .313-.543c.01-.197-.128-.435-.399-.901a8.152 8.152 0 0 1-.028-.049l-1.95-3.336-.022-.037c-.274-.464-.412-.698-.59-.788a.685.685 0 0 0-.623 0c-.178.093-.323.337-.608.829l-1.944 3.336-.006.011c-.285.491-.427.737-.417.938.014.22.128.423.313.543.169.11.458.11 1.032.11Z" clip-rule="evenodd"/></svg>
